site/img/app-store.svg

<svg width="133" height="44" viewBox="0 0 133 44" xmlns="http://www.w3.org/2000/svg">
  <title>
    app-store
  </title>
  <g fill-rule="nonzero" fill="none">
    <path d="M133 39.59c0 2.436-1.712 4.41-3.83 4.41H3.835C1.718 44 0 42.026 0 39.59V4.415C0 1.98 1.718 0 3.835 0H129.17c2.118 0 3.83 1.98 3.83 4.416V39.59z" fill="#FFF"/>
    <path d="M29.128 21.784c.033 3.863 3.38 5.14 3.42 5.154-.02.09-.524 1.843-1.78 3.623-1.047 1.568-2.145 3.1-3.89 3.128-1.693.04-2.263-.997-4.206-.997-1.96 0-2.568.97-4.193 1.037-1.662.06-2.93-1.673-4.017-3.226-2.17-3.17-3.86-8.935-1.595-12.858 1.098-1.924 3.1-3.163 5.24-3.196 1.663-.034 3.206 1.123 4.228 1.123 1.002 0 2.91-1.385 4.877-1.178.823.024 3.165.325 4.676 2.528-.123.073-2.79 1.64-2.762 4.864zm-3.2-9.478c-.912 1.076-2.37 1.9-3.792 1.793-.186-1.453.534-2.997 1.34-3.94.91-1.068 2.493-1.887 3.758-1.943.166 1.51-.432 2.996-1.306 4.09zm26.717 21.198h-2.27l-1.245-3.91h-4.324l-1.185 3.91h-2.21l4.284-13.308h2.646l4.305 13.308zm-3.89-5.55L47.63 24.48c-.12-.355-.342-1.19-.67-2.507h-.04c-.132.566-.343 1.402-.633 2.507l-1.105 3.475h3.573zm14.907.634c0 1.632-.44 2.922-1.323 3.87-.79.842-1.772 1.263-2.943 1.263-1.264 0-2.172-.453-2.725-1.36h-.04v5.054H54.5V27.067c0-1.026-.027-2.08-.08-3.16h1.876l.12 1.522h.04c.71-1.147 1.79-1.72 3.237-1.72 1.132 0 2.077.448 2.833 1.343.758.896 1.136 2.074 1.136 3.535zm-2.172.078c0-.934-.21-1.704-.632-2.31-.46-.632-1.08-.948-1.856-.948-.526 0-1.004.176-1.43.523-.43.35-.71.808-.84 1.374-.066.264-.1.48-.1.65v1.6c0 .698.215 1.287.643 1.768.428.48.984.72 1.668.72.803 0 1.428-.31 1.875-.927.448-.62.672-1.435.672-2.45zm13.21-.078c0 1.632-.442 2.922-1.325 3.87-.79.842-1.77 1.263-2.94 1.263-1.265 0-2.173-.453-2.725-1.36h-.04v5.054h-2.132V27.067c0-1.026-.027-2.08-.08-3.16h1.876l.12 1.522h.04c.71-1.147 1.788-1.72 3.237-1.72 1.132 0 2.077.448 2.835 1.343.755.896 1.134 2.074 1.134 3.535zm-2.173.078c0-.934-.21-1.704-.633-2.31-.46-.632-1.078-.948-1.855-.948-.528 0-1.005.176-1.433.523-.428.35-.707.808-.838 1.374-.066.264-.1.48-.1.65v1.6c0 .698.214 1.287.64 1.768.428.48.984.72 1.67.72.803 0 1.428-.31 1.875-.927.448-.62.672-1.435.672-2.45zm14.512 1.106c0 1.132-.394 2.053-1.183 2.764-.867.777-2.074 1.165-3.625 1.165-1.432 0-2.58-.275-3.45-.828l.495-1.777c.936.566 1.963.85 3.082.85.802 0 1.427-.182 1.876-.544.447-.36.67-.847.67-1.453 0-.54-.184-.995-.553-1.364-.367-.37-.98-.712-1.836-1.03-2.33-.868-3.494-2.14-3.494-3.815 0-1.094.408-1.99 1.225-2.69.814-.698 1.9-1.047 3.258-1.047 1.21 0 2.217.212 3.02.633l-.533 1.738c-.75-.407-1.598-.61-2.547-.61-.75 0-1.336.184-1.756.552-.355.33-.533.73-.533 1.205 0 .526.203.96.61 1.303.356.316 1 .658 1.937 1.027 1.145.46 1.986 1 2.527 1.618.54.616.81 1.387.81 2.307zm7.048-4.264h-2.35v4.66c0 1.184.414 1.776 1.244 1.776.38 0 .697-.033.947-.1l.058 1.62c-.42.157-.973.236-1.658.236-.842 0-1.5-.257-1.975-.77-.473-.514-.71-1.376-.71-2.587v-4.837h-1.4v-1.6h1.4V22.15l2.093-.633v2.39h2.35v1.6zm10.603 3.12c0 1.474-.42 2.685-1.263 3.632-.883.975-2.055 1.46-3.516 1.46-1.407 0-2.528-.466-3.364-1.4-.836-.934-1.254-2.113-1.254-3.534 0-1.487.43-2.705 1.293-3.652.86-.948 2.023-1.422 3.484-1.422 1.407 0 2.54.467 3.395 1.402.818.907 1.226 2.078 1.226 3.513zm-2.21.068c0-.885-.19-1.644-.573-2.277-.447-.767-1.086-1.15-1.914-1.15-.857 0-1.508.384-1.955 1.15-.383.633-.572 1.404-.572 2.316 0 .885.19 1.644.572 2.276.46.766 1.105 1.148 1.936 1.148.814 0 1.453-.39 1.914-1.168.393-.645.59-1.412.59-2.296zm9.14-2.913c-.21-.04-.435-.06-.67-.06-.75 0-1.33.284-1.74.85-.354.5-.532 1.133-.532 1.896v5.034h-2.13l.02-6.574c0-1.106-.028-2.113-.08-3.02h1.856l.078 1.835h.06c.224-.63.58-1.14 1.065-1.52.475-.343.988-.514 1.54-.514.198 0 .376.015.534.04v2.033zm9.536 2.47c0 .38-.025.703-.078.966h-6.396c.025.947.334 1.672.928 2.172.54.447 1.236.67 2.092.67.947 0 1.81-.15 2.588-.453l.334 1.48c-.908.395-1.98.592-3.217.592-1.488 0-2.656-.438-3.506-1.313-.847-.876-1.272-2.05-1.272-3.525 0-1.447.395-2.652 1.186-3.613.828-1.026 1.947-1.54 3.355-1.54 1.382 0 2.43.514 3.14 1.54.563.815.846 1.823.846 3.02zm-2.033-.554c.014-.633-.125-1.18-.414-1.64-.37-.593-.937-.89-1.7-.89-.697 0-1.264.29-1.697.87-.355.46-.566 1.014-.63 1.658h4.44zM48.05 12.01c0 1.176-.353 2.062-1.058 2.657-.653.55-1.58.824-2.783.824-.597 0-1.107-.025-1.534-.077v-6.43c.557-.09 1.157-.137 1.805-.137 1.146 0 2.01.25 2.59.747.653.563.98 1.368.98 2.416zm-1.105.028c0-.763-.202-1.348-.606-1.756-.405-.407-.995-.61-1.772-.61-.33 0-.61.02-.844.067v4.888c.13.02.365.03.708.03.802 0 1.42-.224 1.857-.67.435-.446.655-1.096.655-1.95zm6.964 1c0 .724-.208 1.318-.622 1.784-.434.48-1.01.718-1.727.718-.69 0-1.242-.23-1.653-.69-.41-.458-.615-1.037-.615-1.735 0-.73.21-1.33.635-1.794.424-.464.994-.697 1.712-.697.69 0 1.247.23 1.668.688.4.447.6 1.023.6 1.727zm-1.088.033c0-.434-.094-.807-.28-1.118-.22-.376-.534-.564-.94-.564-.422 0-.742.188-.962.564-.188.31-.28.69-.28 1.138 0 .435.093.808.28 1.12.227.375.543.563.95.563.4 0 .715-.19.94-.574.195-.318.292-.694.292-1.13zm8.943-2.35l-1.475 4.713h-.96l-.61-2.047c-.156-.51-.282-1.02-.38-1.523h-.02c-.09.518-.216 1.025-.378 1.523l-.65 2.047h-.97l-1.387-4.714h1.077l.533 2.24c.13.53.235 1.035.32 1.513h.02c.077-.394.206-.896.388-1.503l.67-2.25h.853l.64 2.202c.156.537.282 1.054.38 1.552h.028c.07-.485.178-1.002.32-1.552l.572-2.202h1.03zm5.433 4.713H66.15v-2.7c0-.832-.316-1.248-.95-1.248-.31 0-.562.114-.757.343-.193.23-.29.5-.29.808v2.796h-1.05v-3.366c0-.414-.012-.863-.037-1.35h.92l.05.738h.03c.12-.23.303-.418.542-.57.284-.175.602-.264.95-.264.44 0 .806.142 1.097.427.362.35.543.87.543 1.562v2.823zm2.89 0H69.04V8.556h1.048v6.877zm6.17-2.396c0 .725-.207 1.32-.62 1.785-.435.48-1.01.718-1.728.718-.693 0-1.244-.23-1.654-.69-.41-.458-.615-1.037-.615-1.735 0-.73.212-1.33.636-1.794.424-.464.994-.697 1.71-.697.694 0 1.25.23 1.67.688.4.447.602 1.023.602 1.727zm-1.088.034c0-.434-.094-.807-.28-1.118-.22-.376-.534-.564-.94-.564-.422 0-.742.188-.96.564-.19.31-.282.69-.282 1.138 0 .435.094.808.28 1.12.228.375.544.563.952.563.4 0 .713-.19.94-.574.194-.318.29-.694.29-1.13zm6.16 2.363h-.94l-.08-.543h-.028c-.322.433-.78.65-1.377.65-.445 0-.805-.143-1.076-.427-.247-.258-.37-.58-.37-.96 0-.576.24-1.015.723-1.32.482-.303 1.16-.452 2.033-.445V12.3c0-.62-.326-.93-.98-.93-.464 0-.874.116-1.228.348l-.213-.688c.438-.27.98-.407 1.617-.407 1.232 0 1.85.65 1.85 1.95v1.736c0 .47.023.845.068 1.123zm-1.088-1.62v-.727c-1.156-.02-1.734.297-1.734.95 0 .246.066.43.2.553.136.122.308.183.513.183.23 0 .446-.073.642-.218.197-.146.318-.33.363-.558.01-.05.017-.113.017-.184zm7.043 1.62h-.93l-.05-.757h-.028c-.297.576-.803.864-1.514.864-.568 0-1.04-.223-1.416-.67-.375-.445-.562-1.024-.562-1.735 0-.763.203-1.38.61-1.853.396-.44.88-.66 1.456-.66.634 0 1.077.213 1.33.64h.02V8.556h1.048v5.607c0 .46.012.882.037 1.27zM86.2 13.445v-.786c0-.137-.01-.247-.03-.33-.06-.253-.186-.465-.38-.636-.194-.17-.43-.257-.7-.257-.39 0-.697.155-.922.466-.223.31-.336.708-.336 1.193 0 .466.107.844.322 1.135.227.31.533.466.916.466.344 0 .62-.13.828-.388.202-.24.3-.527.3-.863zm10.048-.408c0 .725-.207 1.32-.62 1.785-.435.48-1.01.718-1.728.718-.69 0-1.242-.23-1.654-.69-.41-.458-.615-1.037-.615-1.735 0-.73.212-1.33.636-1.794.424-.464.994-.697 1.713-.697.69 0 1.247.23 1.667.688.4.447.6 1.023.6 1.727zm-1.086.034c0-.434-.094-.807-.28-1.118-.222-.376-.534-.564-.942-.564-.42 0-.74.188-.96.564-.19.31-.282.69-.282 1.138 0 .435.094.808.28 1.12.228.375.544.563.952.563.4 0 .715-.19.94-.574.194-.318.292-.694.292-1.13zm6.72 2.363h-1.046v-2.7c0-.832-.316-1.248-.95-1.248-.312 0-.563.114-.757.343-.195.23-.292.5-.292.808v2.796h-1.05v-3.366c0-.414-.01-.863-.036-1.35h.92l.05.738h.028c.123-.23.305-.418.543-.57.285-.175.602-.264.95-.264.44 0 .806.142 1.097.427.363.35.543.87.543 1.562v2.823zm7.054-3.93h-1.154v2.29c0 .583.205.874.61.874.19 0 .345-.016.468-.05l.027.796c-.207.078-.48.117-.814.117-.414 0-.736-.126-.97-.378-.233-.252-.35-.676-.35-1.27v-2.378h-.688v-.785h.69v-.865l1.026-.31v1.173h1.155v.786zm5.548 3.93h-1.05v-2.68c0-.845-.315-1.268-.948-1.268-.486 0-.818.245-1 .735-.03.103-.05.23-.05.377v2.835h-1.046V8.556h1.047v2.84h.02c.33-.516.803-.774 1.416-.774.434 0 .793.142 1.078.427.356.354.534.882.534 1.58v2.803zm5.723-2.58c0 .188-.014.346-.04.475h-3.142c.014.466.164.82.455 1.067.266.22.61.33 1.03.33.464 0 .888-.074 1.27-.223l.164.728c-.447.194-.973.29-1.582.29-.73 0-1.305-.214-1.72-.644-.42-.43-.626-1.007-.626-1.73 0-.712.193-1.304.582-1.776.406-.504.955-.756 1.648-.756.678 0 1.193.252 1.54.756.282.4.42.895.42 1.483zm-1-.27c.008-.312-.06-.58-.203-.806-.182-.29-.46-.437-.834-.437-.342 0-.62.142-.834.427-.174.227-.277.498-.31.815h2.18z" fill="#000"/>
  </g>
</svg>

<?xml version="1.0" encoding="UTF-8"?>
<svg width="133px" height="44px" viewBox="0 0 133 44" version="1.1" xmlns="http://www.w3.org/2000/svg" xmlns:xlink="http://www.w3.org/1999/xlink">
    <!-- Generator: Sketch 42 (36781) - http://www.bohemiancoding.com/sketch -->
    <title>app-store</title>
    <desc>Created with Sketch.</desc>
    <defs></defs>
    <g id="Page-1" stroke="none" stroke-width="1" fill="none" fill-rule="evenodd">
        <g id="Splash" transform="translate(-595.000000, -610.000000)" fill-rule="nonzero">
            <g id="App-Store-Badge" transform="translate(595.000000, 610.000000)">
                <path d="M133,39.5894054 C133,42.0261725 131.287828,44 129.170089,44 L3.83490559,44 C1.71816557,44 0,42.0261725 0,39.5894054 L0,4.4163526 C0,1.98073702 1.71816557,0 3.83490559,0 L129.16909,0 C131.287828,0 132.999001,1.98073702 132.999001,4.4163526 L133,39.5894054 L133,39.5894054 Z" id="Shape" fill="#FFFFFF"></path>
                <path d="M29.128,21.784 C29.161,25.647 32.507,26.924 32.548,26.938 C32.528,27.028 32.024,28.781 30.769,30.561 C29.721,32.128 28.623,33.66 26.879,33.688 C25.185,33.727 24.615,32.691 22.672,32.691 C20.711,32.691 20.104,33.66 18.479,33.727 C16.818,33.788 15.549,32.054 14.463,30.501 C12.292,27.33 10.602,21.565 12.868,17.642 C13.966,15.718 15.968,14.479 18.108,14.446 C19.771,14.412 21.314,15.569 22.336,15.569 C23.338,15.569 25.246,14.185 27.213,14.392 C28.036,14.416 30.378,14.717 31.889,16.92 C31.767,16.993 29.099,18.561 29.128,21.784 Z M25.928,12.306 C25.016,13.382 23.557,14.205 22.136,14.099 C21.95,12.647 22.67,11.103 23.476,10.161 C24.387,9.092 25.969,8.273 27.234,8.217 C27.4,9.726 26.802,11.213 25.928,12.306 Z M52.645,33.504 L50.374,33.504 L49.13,29.595 L44.806,29.595 L43.621,33.504 L41.41,33.504 L45.694,20.196 L48.34,20.196 L52.645,33.504 Z M48.755,27.955 L47.63,24.48 C47.511,24.125 47.288,23.289 46.959,21.973 L46.919,21.973 C46.788,22.539 46.577,23.375 46.287,24.48 L45.182,27.955 L48.755,27.955 L48.755,27.955 Z M63.662,28.588 C63.662,30.22 63.221,31.51 62.339,32.457 C61.549,33.3 60.568,33.721 59.397,33.721 C58.133,33.721 57.225,33.267 56.672,32.359 L56.632,32.359 L56.632,37.414 L54.5,37.414 L54.5,27.067 C54.5,26.041 54.473,24.988 54.421,23.908 L56.296,23.908 L56.415,25.429 L56.455,25.429 C57.166,24.283 58.245,23.711 59.693,23.711 C60.825,23.711 61.77,24.158 62.526,25.053 C63.284,25.949 63.662,27.127 63.662,28.588 Z M61.49,28.666 C61.49,27.732 61.28,26.962 60.858,26.356 C60.397,25.724 59.778,25.408 59.002,25.408 C58.476,25.408 57.998,25.584 57.571,25.931 C57.143,26.281 56.863,26.738 56.732,27.304 C56.666,27.568 56.633,27.784 56.633,27.954 L56.633,29.554 C56.633,30.252 56.847,30.841 57.275,31.322 C57.703,31.803 58.259,32.043 58.943,32.043 C59.746,32.043 60.371,31.733 60.818,31.115 C61.266,30.496 61.49,29.68 61.49,28.666 Z M74.699,28.588 C74.699,30.22 74.258,31.51 73.375,32.457 C72.586,33.3 71.605,33.721 70.434,33.721 C69.17,33.721 68.262,33.267 67.71,32.359 L67.67,32.359 L67.67,37.414 L65.538,37.414 L65.538,27.067 C65.538,26.041 65.511,24.988 65.459,23.908 L67.334,23.908 L67.453,25.429 L67.493,25.429 C68.203,24.283 69.282,23.711 70.731,23.711 C71.862,23.711 72.807,24.158 73.565,25.053 C74.32,25.949 74.699,27.127 74.699,28.588 Z M72.527,28.666 C72.527,27.732 72.316,26.962 71.894,26.356 C71.433,25.724 70.816,25.408 70.039,25.408 C69.512,25.408 69.035,25.584 68.607,25.931 C68.179,26.281 67.9,26.738 67.769,27.304 C67.704,27.568 67.67,27.784 67.67,27.954 L67.67,29.554 C67.67,30.252 67.884,30.841 68.31,31.322 C68.738,31.802 69.294,32.043 69.98,32.043 C70.783,32.043 71.408,31.733 71.855,31.115 C72.303,30.496 72.527,29.68 72.527,28.666 Z M87.039,29.772 C87.039,30.904 86.646,31.825 85.857,32.536 C84.99,33.313 83.783,33.701 82.232,33.701 C80.8,33.701 79.652,33.425 78.783,32.872 L79.277,31.095 C80.213,31.661 81.24,31.945 82.359,31.945 C83.162,31.945 83.787,31.763 84.236,31.401 C84.683,31.039 84.906,30.553 84.906,29.947 C84.906,29.407 84.722,28.952 84.353,28.583 C83.986,28.214 83.373,27.871 82.517,27.554 C80.187,26.685 79.023,25.412 79.023,23.738 C79.023,22.644 79.431,21.747 80.248,21.049 C81.062,20.35 82.148,20.001 83.506,20.001 C84.717,20.001 85.723,20.212 86.526,20.633 L85.993,22.371 C85.243,21.963 84.395,21.759 83.446,21.759 C82.696,21.759 82.11,21.944 81.69,22.312 C81.335,22.641 81.157,23.042 81.157,23.517 C81.157,24.043 81.36,24.478 81.768,24.82 C82.123,25.136 82.768,25.478 83.704,25.847 C84.849,26.308 85.69,26.847 86.231,27.465 C86.77,28.081 87.039,28.852 87.039,29.772 Z M94.088,25.508 L91.738,25.508 L91.738,30.167 C91.738,31.352 92.152,31.944 92.982,31.944 C93.363,31.944 93.679,31.911 93.929,31.845 L93.988,33.464 C93.568,33.621 93.015,33.7 92.33,33.7 C91.488,33.7 90.83,33.443 90.355,32.93 C89.882,32.416 89.644,31.554 89.644,30.343 L89.644,25.506 L88.244,25.506 L88.244,23.906 L89.644,23.906 L89.644,22.149 L91.738,21.517 L91.738,23.906 L94.088,23.906 L94.088,25.508 Z M104.691,28.627 C104.691,30.102 104.269,31.313 103.427,32.26 C102.544,33.235 101.372,33.721 99.911,33.721 C98.503,33.721 97.382,33.254 96.546,32.32 C95.71,31.386 95.292,30.207 95.292,28.786 C95.292,27.299 95.722,26.081 96.585,25.134 C97.446,24.186 98.608,23.712 100.069,23.712 C101.477,23.712 102.61,24.179 103.465,25.114 C104.283,26.021 104.691,27.192 104.691,28.627 Z M102.479,28.696 C102.479,27.811 102.29,27.052 101.907,26.419 C101.46,25.653 100.821,25.271 99.993,25.271 C99.136,25.271 98.485,25.654 98.038,26.419 C97.655,27.053 97.466,27.824 97.466,28.736 C97.466,29.621 97.655,30.38 98.038,31.012 C98.499,31.778 99.143,32.16 99.974,32.16 C100.788,32.16 101.427,31.77 101.888,30.992 C102.281,30.347 102.479,29.58 102.479,28.696 Z M111.621,25.783 C111.41,25.744 111.185,25.724 110.949,25.724 C110.199,25.724 109.619,26.007 109.211,26.574 C108.856,27.074 108.678,27.706 108.678,28.469 L108.678,33.504 L106.547,33.504 L106.567,26.93 C106.567,25.824 106.54,24.817 106.487,23.909 L108.344,23.909 L108.422,25.745 L108.481,25.745 C108.706,25.114 109.061,24.606 109.547,24.225 C110.022,23.882 110.535,23.711 111.088,23.711 C111.285,23.711 111.463,23.725 111.621,23.75 L111.621,25.783 Z M121.156,28.252 C121.156,28.634 121.131,28.956 121.078,29.219 L114.682,29.219 C114.707,30.167 115.016,30.892 115.61,31.392 C116.149,31.839 116.846,32.063 117.702,32.063 C118.649,32.063 119.513,31.912 120.29,31.609 L120.624,33.089 C119.716,33.485 118.644,33.682 117.407,33.682 C115.919,33.682 114.751,33.244 113.901,32.369 C113.053,31.494 112.628,30.319 112.628,28.845 C112.628,27.398 113.023,26.193 113.814,25.232 C114.642,24.206 115.761,23.693 117.169,23.693 C118.552,23.693 119.599,24.206 120.31,25.232 C120.873,26.047 121.156,27.055 121.156,28.252 Z M119.123,27.699 C119.137,27.067 118.998,26.521 118.709,26.06 C118.34,25.467 117.773,25.171 117.01,25.171 C116.313,25.171 115.746,25.46 115.313,26.04 C114.958,26.501 114.747,27.054 114.682,27.698 L119.123,27.698 L119.123,27.699 Z M48.05,12.009 C48.05,13.186 47.697,14.072 46.992,14.667 C46.339,15.216 45.411,15.491 44.209,15.491 C43.613,15.491 43.103,15.465 42.676,15.413 L42.676,8.982 C43.233,8.892 43.833,8.846 44.481,8.846 C45.626,8.846 46.489,9.095 47.071,9.593 C47.723,10.156 48.05,10.961 48.05,12.009 Z M46.945,12.038 C46.945,11.275 46.743,10.69 46.339,10.282 C45.935,9.875 45.345,9.671 44.568,9.671 C44.238,9.671 43.957,9.693 43.724,9.739 L43.724,14.628 C43.853,14.648 44.089,14.657 44.432,14.657 C45.234,14.657 45.853,14.434 46.289,13.988 C46.725,13.542 46.945,12.892 46.945,12.038 Z M53.909,13.037 C53.909,13.762 53.702,14.356 53.288,14.822 C52.854,15.301 52.279,15.54 51.561,15.54 C50.869,15.54 50.318,15.311 49.907,14.851 C49.497,14.392 49.292,13.813 49.292,13.115 C49.292,12.385 49.503,11.786 49.927,11.321 C50.351,10.856 50.921,10.623 51.639,10.623 C52.331,10.623 52.887,10.852 53.308,11.311 C53.708,11.757 53.909,12.333 53.909,13.037 Z M52.822,13.071 C52.822,12.636 52.728,12.263 52.541,11.952 C52.321,11.576 52.008,11.388 51.601,11.388 C51.18,11.388 50.86,11.576 50.64,11.952 C50.452,12.263 50.359,12.642 50.359,13.09 C50.359,13.525 50.453,13.898 50.64,14.209 C50.867,14.585 51.183,14.773 51.591,14.773 C51.991,14.773 52.305,14.582 52.531,14.199 C52.725,13.882 52.822,13.506 52.822,13.071 Z M61.765,10.719 L60.29,15.433 L59.33,15.433 L58.719,13.386 C58.564,12.875 58.438,12.367 58.34,11.863 L58.321,11.863 C58.23,12.381 58.104,12.888 57.942,13.386 L57.293,15.433 L56.322,15.433 L54.935,10.719 L56.012,10.719 L56.545,12.96 C56.674,13.49 56.78,13.995 56.865,14.473 L56.884,14.473 C56.962,14.079 57.091,13.577 57.273,12.97 L57.942,10.72 L58.796,10.72 L59.437,12.922 C59.592,13.459 59.718,13.976 59.815,14.474 L59.844,14.474 C59.915,13.989 60.022,13.472 60.164,12.922 L60.736,10.72 L61.765,10.72 L61.765,10.719 Z M67.198,15.433 L66.15,15.433 L66.15,12.733 C66.15,11.901 65.834,11.485 65.2,11.485 C64.889,11.485 64.638,11.599 64.443,11.828 C64.25,12.057 64.152,12.327 64.152,12.636 L64.152,15.432 L63.104,15.432 L63.104,12.066 C63.104,11.652 63.091,11.203 63.066,10.717 L63.987,10.717 L64.036,11.454 L64.065,11.454 C64.187,11.225 64.369,11.036 64.608,10.885 C64.892,10.709 65.21,10.62 65.558,10.62 C65.998,10.62 66.364,10.762 66.655,11.047 C67.017,11.396 67.198,11.917 67.198,12.609 L67.198,15.433 L67.198,15.433 Z M70.088,15.433 L69.041,15.433 L69.041,8.556 L70.088,8.556 L70.088,15.433 Z M76.258,13.037 C76.258,13.762 76.051,14.356 75.637,14.822 C75.203,15.301 74.627,15.54 73.91,15.54 C73.217,15.54 72.666,15.311 72.256,14.851 C71.846,14.392 71.641,13.813 71.641,13.115 C71.641,12.385 71.852,11.786 72.276,11.321 C72.7,10.856 73.27,10.623 73.987,10.623 C74.68,10.623 75.235,10.852 75.657,11.311 C76.057,11.757 76.258,12.333 76.258,13.037 Z M75.17,13.071 C75.17,12.636 75.076,12.263 74.889,11.952 C74.67,11.576 74.356,11.388 73.95,11.388 C73.528,11.388 73.208,11.576 72.989,11.952 C72.801,12.263 72.708,12.642 72.708,13.09 C72.708,13.525 72.802,13.898 72.989,14.209 C73.216,14.585 73.532,14.773 73.94,14.773 C74.34,14.773 74.653,14.582 74.879,14.199 C75.074,13.882 75.17,13.506 75.17,13.071 Z M81.33,15.433 L80.389,15.433 L80.311,14.89 L80.282,14.89 C79.96,15.323 79.501,15.54 78.905,15.54 C78.46,15.54 78.1,15.397 77.829,15.113 C77.583,14.855 77.46,14.534 77.46,14.153 C77.46,13.577 77.7,13.138 78.183,12.834 C78.665,12.53 79.343,12.381 80.216,12.388 L80.216,12.3 C80.216,11.679 79.89,11.369 79.237,11.369 C78.772,11.369 78.362,11.486 78.008,11.718 L77.795,11.03 C78.233,10.759 78.774,10.623 79.412,10.623 C80.644,10.623 81.262,11.273 81.262,12.573 L81.262,14.309 C81.262,14.78 81.285,15.155 81.33,15.433 Z M80.242,13.813 L80.242,13.086 C79.086,13.066 78.508,13.383 78.508,14.036 C78.508,14.282 78.574,14.466 78.709,14.589 C78.844,14.712 79.016,14.773 79.221,14.773 C79.451,14.773 79.666,14.7 79.862,14.555 C80.059,14.409 80.18,14.224 80.225,13.997 C80.236,13.946 80.242,13.884 80.242,13.813 Z M87.285,15.433 L86.355,15.433 L86.306,14.676 L86.277,14.676 C85.98,15.252 85.474,15.54 84.763,15.54 C84.195,15.54 83.722,15.317 83.347,14.871 C82.972,14.425 82.785,13.846 82.785,13.135 C82.785,12.372 82.988,11.754 83.396,11.282 C83.791,10.842 84.275,10.622 84.851,10.622 C85.484,10.622 85.927,10.835 86.179,11.262 L86.199,11.262 L86.199,8.556 L87.248,8.556 L87.248,14.163 C87.248,14.622 87.26,15.045 87.285,15.433 Z M86.199,13.445 L86.199,12.659 C86.199,12.523 86.189,12.413 86.17,12.329 C86.111,12.077 85.984,11.865 85.791,11.694 C85.596,11.523 85.361,11.437 85.09,11.437 C84.699,11.437 84.393,11.592 84.168,11.903 C83.945,12.214 83.832,12.611 83.832,13.096 C83.832,13.562 83.939,13.94 84.154,14.231 C84.381,14.541 84.687,14.696 85.07,14.696 C85.414,14.696 85.689,14.567 85.898,14.308 C86.1,14.069 86.199,13.781 86.199,13.445 Z M96.248,13.037 C96.248,13.762 96.041,14.356 95.627,14.822 C95.193,15.301 94.619,15.54 93.9,15.54 C93.209,15.54 92.658,15.311 92.246,14.851 C91.836,14.392 91.631,13.813 91.631,13.115 C91.631,12.385 91.842,11.786 92.266,11.321 C92.69,10.856 93.26,10.623 93.979,10.623 C94.67,10.623 95.227,10.852 95.647,11.311 C96.047,11.757 96.248,12.333 96.248,13.037 Z M95.162,13.071 C95.162,12.636 95.068,12.263 94.881,11.952 C94.66,11.576 94.348,11.388 93.94,11.388 C93.52,11.388 93.2,11.576 92.979,11.952 C92.791,12.263 92.698,12.642 92.698,13.09 C92.698,13.525 92.792,13.898 92.979,14.209 C93.206,14.585 93.522,14.773 93.93,14.773 C94.33,14.773 94.645,14.582 94.871,14.199 C95.064,13.882 95.162,13.506 95.162,13.071 Z M101.883,15.433 L100.836,15.433 L100.836,12.733 C100.836,11.901 100.52,11.485 99.885,11.485 C99.574,11.485 99.323,11.599 99.129,11.828 C98.935,12.057 98.838,12.327 98.838,12.636 L98.838,15.432 L97.789,15.432 L97.789,12.066 C97.789,11.652 97.777,11.203 97.752,10.717 L98.672,10.717 L98.721,11.454 L98.75,11.454 C98.873,11.225 99.055,11.036 99.293,10.885 C99.578,10.709 99.895,10.62 100.244,10.62 C100.683,10.62 101.049,10.762 101.34,11.047 C101.703,11.396 101.883,11.917 101.883,12.609 L101.883,15.433 L101.883,15.433 Z M108.936,11.504 L107.782,11.504 L107.782,13.794 C107.782,14.376 107.987,14.667 108.393,14.667 C108.581,14.667 108.737,14.651 108.86,14.618 L108.887,15.413 C108.68,15.491 108.408,15.53 108.073,15.53 C107.659,15.53 107.337,15.404 107.104,15.152 C106.87,14.9 106.754,14.476 106.754,13.881 L106.754,11.504 L106.065,11.504 L106.065,10.719 L106.754,10.719 L106.754,9.855 L107.781,9.545 L107.781,10.718 L108.935,10.718 L108.935,11.504 L108.936,11.504 Z M114.484,15.433 L113.435,15.433 L113.435,12.753 C113.435,11.908 113.119,11.485 112.486,11.485 C112,11.485 111.668,11.73 111.486,12.22 C111.455,12.323 111.437,12.449 111.437,12.597 L111.437,15.432 L110.39,15.432 L110.39,8.556 L111.437,8.556 L111.437,11.397 L111.457,11.397 C111.787,10.88 112.26,10.622 112.873,10.622 C113.307,10.622 113.666,10.764 113.951,11.049 C114.306,11.404 114.484,11.932 114.484,12.63 L114.484,15.433 L114.484,15.433 Z M120.207,12.853 C120.207,13.041 120.193,13.199 120.168,13.328 L117.025,13.328 C117.039,13.794 117.189,14.149 117.48,14.395 C117.746,14.615 118.089,14.725 118.509,14.725 C118.974,14.725 119.398,14.651 119.78,14.502 L119.944,15.23 C119.497,15.424 118.971,15.521 118.362,15.521 C117.632,15.521 117.057,15.306 116.641,14.876 C116.223,14.446 116.016,13.869 116.016,13.145 C116.016,12.434 116.209,11.842 116.598,11.37 C117.004,10.866 117.553,10.614 118.246,10.614 C118.924,10.614 119.439,10.866 119.787,11.37 C120.068,11.77 120.207,12.265 120.207,12.853 Z M119.207,12.582 C119.215,12.271 119.146,12.003 119.004,11.777 C118.822,11.486 118.545,11.34 118.17,11.34 C117.828,11.34 117.549,11.482 117.336,11.767 C117.162,11.994 117.059,12.265 117.025,12.582 L119.207,12.582 Z" id="Combined-Shape" fill="#000000"></path>
            </g>
        </g>
    </g>
</svg>
